!!!COM: Gaspar van Weerbeke
!!!CDT: ~1450-~1517
!!!OTL: Ibo mihi ad montem Mirrhe
!!!AGN: Motet
!!!SCT: Gas0409
!!!SCA: Gas0409
!!!voices: 4
**kern	**text	**kern	**text	**kern	**text	**kern	**text
*part4	*part4	*part3	*part3	*part2	*part2	*part1	*part1
*staff4	*staff4	*staff3	*staff3	*staff2	*staff2	*staff1	*staff1
*I"Bassus	*	*I"Tenor	*	*I"Altus	*	*I"Superius	*
*I'B	*	*I'T	*	*I'A	*	*I'S	*
*clefF4	*	*clefGv2	*	*clefGv2	*	*clefG2	*
*k[]	*	*k[]	*	*k[]	*	*k[]	*
*M3/2	*	*M3/2	*	*M3/2	*	*M3/2	*
*met(O)	*	*met(O)	*	*met(O)	*	*met(O)	*
=1	=1	=1	=1	=1	=1	=1	=1
1.r	.	1.r	.	2A	I-	2a	I-
.	.	.	.	4.c	-bo	4.a	-bo
.	.	.	.	8B	.	8g	.
.	.	.	.	4G	.	4e	.
.	.	.	.	4A	.	4f	.
=2	=2	=2	=2	=2	=2	=2	=2
1.r	.	2r	.	2B	mi-	2g	mi-
.	.	2A	I-	4A	-hi	2a	-hi
.	.	.	.	4.c	.	.	.
.	.	4.A	-bo	.	.	4.cc	ad
.	.	.	.	8d	.	.	.
.	.	.	.	[4e	ad	.	.
.	.	8G	.	.	.	8b	.
=3	=3	=3	=3	=3	=3	=3	=3
2r	.	4E	.	4e]	.	4g	.
.	.	4F	.	8dL	.	4a	.
.	.	.	.	8cJ	.	.	.
2E	Ad	2G	mi-	4B	mon-	2b	mon-
.	.	.	.	4e	.	.	.
4AA	.	2A	-hi	4.c	-tem	4a	-tem
[4C	mon-	.	.	.	.	[4e	Mir-
.	.	.	.	8B	.	.	.
=4	=4	=4	=4	=4	=4	=4	=4
8C]	.	4.c	ad	4G	Mir-	8e]	.
8D	.	.	.	.	.	8fL	.
2E	.	.	.	4g	.	8g	.
.	.	8B	.	.	.	8aJ	.
.	.	4G	.	8eL	.	8bL	.
.	.	.	.	8cJ	.	8ccJ	.
4F	.	4A	.	4d	.	2a	.
2E	.	2B	mon-	2e	-rhe	.	.
.	.	.	.	.	.	4g#i	.
!!LO:LB:g=original
=5	=5	=5	=5	=5	=5	=5	=5
4AA	-tem	4A	-tem	1.r	.	2a	-rhe
4.C	Mir-	4.E	Mir-	.	.	.	.
.	.	.	.	.	.	2r	.
8D	.	8FL	.	.	.	.	.
2E	.	8G	.	.	.	.	.
.	.	8AJ	.	.	.	.	.
.	.	8BL	.	.	.	2r	.
.	.	8cJ	.	.	.	.	.
8DL	.	[4A	.	.	.	.	.
8CJ	.	.	.	.	.	.	.
=6	=6	=6	=6	=6	=6	=6	=6
2BB	.	4A]	.	2r	.	1.r	.
.	.	4G#i	.	.	.	.	.
1AA	-rhe	2A	-rhe	4.c	et	.	.
.	.	.	.	8d	.	.	.
.	.	2c	et	4e	.	.	.
.	.	.	.	4e	ad	.	.
=7	=7	=7	=7	=7	=7	=7	=7
2r	.	2B	ad	4.d	col-	2r	.
.	.	.	.	8c	.	.	.
2r	.	4.c	col-	2A	-les	2cc	et
.	.	16BLL	.	.	.	.	.
.	.	16AJJ	.	.	.	.	.
2E	et	4G	-les	[2e	Li-	2b	ad
.	.	[4E	Li-	.	.	.	.
=8	=8	=8	=8	=8	=8	=8	=8
4G	ad	4E]	.	4e]	.	4.cc	col-
4A	.	4F	.	4d	.	.	.
.	.	.	.	.	.	8b	.
2B	col-	4E	.	4e	.	4g	-les
.	.	2G	.	4B	.	2e	Li-
4E	-les	.	.	4c	.	.	.
4D	Li-	4A	.	4d	.	4f	.
!!LO:LB:g=original
=9	=9	=9	=9	=9	=9	=9	=9
4E	.	4G	.	4B	.	4e	.
4C	.	2E	.	2c	.	2g	.
4E	.	.	.	.	.	.	.
4D	.	4F	.	4d	.	4a	.
4E	.	4G	.	4B	.	4g	.
4C	.	4A	.	4c	.	[4e	-ba-
=10	=10	=10	=10	=10	=10	=10	=10
2D	-ba-	2F	-ba-	2A	-ba-	8e]	.
.	.	.	.	.	.	8c	.
.	.	.	.	.	.	4d	.
2AA	-ni,	2E	-ni,	2A	-ni,	2e	-ni,
4AA	to-	4E	to-	4c	to-	2r	.
4AA	-ta	4E	-ta	4c	-ta	.	.
=11	=11	=11	=11	=11	=11	=11	=11
4AA	spe-	4F	spe-	4c	spe-	2r	.
4AA	-ci-	4E	-ci-	4c	-ci-	.	.
2AA	-o-	4.A	-o-	2c	-o-	2r	.
.	.	8G	.	.	.	.	.
2AA	-sa	2E	-sa	2c	-sa	4e	to-
.	.	.	.	.	.	4e	-ta
=12	=12	=12	=12	=12	=12	=12	=12
2AA	a-	4r	.	2c	a-	4f	spe-
.	.	4E	a-	.	.	4e	-ci-
4AA	-mi-	4F	-mi-	4c	-mi-	4.a	-o-
4AA	-ca	4E	-ca	4c	-ca	.	.
.	.	.	.	.	.	8g	.
2AA	me-	4.A	me-	2c	me-	2e	-sa
.	.	8G	.	.	.	.	.
!!LO:LB:g=original
=13	=13	=13	=13	=13	=13	=13	=13
4AA	-a,	2E	-a,	2c	-a,	4r	.
*	*edit	*	*	*	*	*	*
4C	a-	.	.	.	.	4e	a-
*	*	*	*	*	*edit	*	*
4D	-mi-	4r	.	4F	me-	4f	-mi-
4C	-ca	4c	et	4G	.	4e	-ca
4.F	me-	4c	ma-	2A	.	4.a	me-
.	.	4c	-cu-	.	.	.	.
8E	.	.	.	.	.	8g	.
=14	=14	=14	=14	=14	=14	=14	=14
1C	-a,	4.c	-la	2G	-a,	2e	-a,
.	.	8B	.	.	.	.	.
*	*	*	*	*	*Xedit	*	*
.	.	2G	.	2g	et	2r	.
*	*Xedit	*	*	*	*	*	*
2C	et	2r	.	4g	ma-	2g	et
.	.	.	.	4g	-cu-	.	.
=15	=15	=15	=15	=15	=15	=15	=15
4C	ma-	2c	non	4.e	-la	4g	ma-
4C	-cu-	.	.	.	.	4g	-cu-
.	.	.	.	8c	.	.	.
2C	-la	4c	est	2c	.	4.e	-la
.	.	4.e	.	.	.	.	.
.	.	.	.	.	.	8c	.
2C	non	.	.	4g	non	4c	.
.	.	8dL	.	.	.	.	.
.	.	8c	.	4e	.	4g	non
.	.	8BJ	.	.	.	.	.
=16	=16	=16	=16	=16	=16	=16	=16
4D	est	4A	.	4d	est	4f	.
4E	.	2G	.	4B	.	2g	est
2C	.	.	.	4c	.	.	.
.	.	2c	in	2.G	in	8fL	.
.	.	.	.	.	.	8eJ	.
2GG	in	.	.	.	.	2d	in
.	.	4B	.	.	.	.	.
!!LO:PB:g=original
=17	=17	=17	=17	=17	=17	=17	=17
1.C	te.	2c	te.	2G	te.	1c	te.
.	.	2r	.	2g	Ve-	.	.
.	.	2c	Ve-	4e	-ni	2r	.
.	.	.	.	4e	de	.	.
=18	=18	=18	=18	=18	=18	=18	=18
*	*edit	*	*	*	*	*	*
2E	Ve-	4B	-ni	4.g	Li-	2r	.
.	.	4c	de	.	.	.	.
.	.	.	.	8e	.	.	.
2D	-ni	4.d	Li-	2.f	.	2r	.
.	.	8c	.	.	.	.	.
2r	.	4A	.	.	.	2cc	Ve-
.	.	4A	-ba-	4f	-ba-	.	.
=19	=19	=19	=19	=19	=19	=19	=19
2r	.	2G	-no	4.g	-no	4b	-ni
.	.	.	.	.	.	4cc	de
.	.	.	.	8f	.	.	.
2r	.	4r	.	2d	.	4.dd	Li-
.	.	4G	spon-	.	.	.	.
.	.	.	.	.	.	8cc	.
*	*Xedit	*	*	*	*	*	*
2F	spon-	4c	.	4r	.	4a	.
.	.	4d	.	4A	spon-	4a	-ba-
=20	=20	=20	=20	=20	=20	=20	=20
4E	.	1e	.	4B	.	2g	-no
4.C	-sa	.	.	4c	.	.	.
.	.	.	.	4.G	-sa	2cc	spon-
8DL	.	.	.	.	.	.	.
8E	.	.	.	.	.	.	.
8FJ	.	.	.	8A	.	.	.
2G	.	2d	.	8BL	.	4.b	-sa
.	.	.	.	8cJ	.	.	.
.	.	.	.	4d	.	.	.
.	.	.	.	.	.	8a	.
=21	=21	=21	=21	=21	=21	=21	=21
4E	.	4e	-sa	4G	.	8gL	.
.	.	.	.	.	.	8fJ	.
2A	me-	4c	me-	4.c	me-	2e	.
.	.	4.A	.	.	.	.	.
.	.	.	.	8d	.	.	.
4AA	.	.	.	2.e	.	2a	me-
.	.	8c	.	.	.	.	.
2E	.	2B	.	.	.	.	.
.	.	.	.	.	.	4g#i	.
!!LO:LB:g=original
=22	=22	=22	=22	=22	=22	=22	=22
*lig	*	*	*	*	*	*	*
2F	-a,	2A	-a,	4.c	-a,	2a	-a,
.	.	.	.	8A	.	.	.
2E	.	2r	.	4B	.	2r	.
*Xlig	*	*	*	*	*	*	*
.	.	.	.	4B	ve-	.	.
2E	ve-	4r	.	4c	-ni	2g	ve-
.	.	4B	ve-	4B	de	.	.
=23	=23	=23	=23	=23	=23	=23	=23
4E	-ni	4c	-ni	4.e	Li-	4g	-ni
4E	de	4B	de	.	.	4g	de
.	.	.	.	8d	.	.	.
2E	Li-	4.e	Li-	4B	.	2.g	Li-
.	.	.	.	4B	-ba-	.	.
.	.	16dLL	.	.	.	.	.
.	.	16cJJ	.	.	.	.	.
4E	-ba-	4B	.	2e	-no	.	.
4E	-no	4B	-ba-	.	.	4g	-ba-
=24	=24	=24	=24	=24	=24	=24	=24
2.F	ve-	2A	-no	4r	.	2a	-no
.	.	.	.	4.c	ve-	.	.
.	.	2e	ve-	.	.	2r	.
.	.	.	.	8c	-ni-	.	.
2C	-ni-	.	.	4c	-ens	.	.
.	.	4e	-ni-	4G	tran-	4.g	ve-
4C	-ens	[4e	-ens	[4c	-si-	.	.
.	.	.	.	.	.	8g	-ni-
=25	=25	=25	=25	=25	=25	=25	=25
4C	tran-	4e]	.	4c]	.	4g	-ens
4G	-si-	4e	tran-	4B	.	4b	tran-
4A	.	2e	-si-	4A	.	4cc	-si-
4G	.	.	.	4e	.	4b	.
4.A	.	2e	-bis	4A	.	4cc	.
.	.	.	.	4c	.	8bL	.
8G	.	.	.	.	.	8aJ	.
!!LO:LB:g=original
=26	=26	=26	=26	=26	=26	=26	=26
2.E	-bis	2r	.	4.B	-bis	2g	-bis
.	.	.	.	8A	.	.	.
.	.	2e	ad	8GL	.	4r	.
.	.	.	.	8FJ	.	.	.
4G	ad	.	.	4E	ad	4b	ad
4A	mon-	4c	mon-	4e	mon-	4cc	mon-
4G	-tem	4d	-tem	4g	-tem	4b	-tem
=27	=27	=27	=27	=27	=27	=27	=27
2F	Her-	2A	Her-	4c	Her-	4cc	Her-
.	.	.	.	4d	.	8bL	.
.	.	.	.	.	.	8aJ	.
2E	.	2B	.	2e	.	4.g#i	.
.	.	.	.	.	.	8f#i	.
2AA	-mon,	2A	-mon,	2c	-mon,	2a	-mon,
=28	=28	=28	=28	=28	=28	=28	=28
2A	a	1.r	.	4.c	a	4.a	a
.	.	.	.	8d	.	8b	.
4E	cu-	.	.	4e	cu-	4cc	cu-
4D	.	.	.	4f	.	4dd	.
2G	-bi-	.	.	4g	-bi-	4b	-bi-
.	.	.	.	[4e	.	4g	.
=29	=29	=29	=29	=29	=29	=29	=29
2F	-li-	4A	a	8e]	.	4.a	-li-
.	.	.	.	8c	.	.	.
.	.	4A	cu-	4d	-li-	.	.
.	.	.	.	.	.	8f	.
2E	-bus	2B	-bi-	2.e	-bus	2g	-bus
4C	le-	4.c	.	.	.	4g	le-
4F	.	.	.	4f	le-	4a	.
.	.	8d	.	.	.	.	.
!!LO:LB:g=original
=30	=30	=30	=30	=30	=30	=30	=30
4E	.	4e	.	8gL	.	4g	.
.	.	.	.	8eJ	.	.	.
4A	.	4c	.	4f	.	2cc	-o-
2G	-o-	2d	-li-	2g	-o-	.	.
.	.	.	.	.	.	4b	.
2C	-num	2c	-bus	[2e	-num	2cc	-num
=31	=31	=31	=31	=31	=31	=31	=31
2r	.	2c	le-	2e]	.	2r	.
2C	et	2e	-o-	2g	et	2cc	et
2G	a	2d	-num	4.g	a	4b	a
.	.	.	.	.	.	[4dd	mon-
.	.	.	.	8f	.	.	.
=32	=32	=32	=32	=32	=32	=32	=32
2G	mon-	2d	et	4d	.	8dd]	.
.	.	.	.	.	.	8cc	.
.	.	.	.	4G	mon-	4b	.
4F	-ti-	4d	a	4A	.	4a	-ti-
4E	.	2e	mon-	4B	-ti-	2g	-bus
2C	-bus	.	.	2c	-bus	.	.
.	.	4e	-ti-	.	.	4cc	le-
=33	=33	=33	=33	=33	=33	=33	=33
4G	le-	4d	-bus	4r	.	4b	-o-
4D	-o-	4f	le-	4d	le-	4a	-par-
4E	-par-	4.e	-o-	4B	-o-	4.g	-do-
2C	-do-	.	.	4c	-par-	.	.
.	.	8d	.	.	.	8f	.
.	.	8cL	.	4G	-do-	4.e	.
.	.	8BJ	.	.	.	.	.
4AA	.	4c	-par-	4A	.	.	.
.	.	.	.	.	.	8f	.
=34	=34	=34	=34	=34	=34	=34	=34
4E	.	4B	-do-	4E	.	4g	.
4F	.	4A	.	4d	.	2a	.
2E	.	2B	.	2e	.	.	.
.	.	.	.	.	.	4g#i	.
2AAl	-rum.	2Al	rum.	2el	-rum.	2al	-rum.
==	==	==	==	==	==	==	==
*-	*-	*-	*-	*-	*-	*-	*-
!!!system-decoration: [*]
!!!RDF**kern: j = editorial accidental, optional, paren up
!!!RDF**kern: i = editorial accidental
!!!RDF**kern: l = terminal breve
!!!PTL: Gaspar van Weerbeke: Collected Works. IV. Motets
!!!PPR: American Institute of Musicology
!!!PC#: Corpus Mensurabilis Musicae 106/IV
!!!PDT: 2010
!!!PED: Pavanello, Agnese
!!!YEC: Copyright 2010, Pavanello, Agnese
!!!YEM: CC-BY-SA 4.0 (https://creativecommons.org/licenses/by-nc/4.0/legalcode)
!!!EED: Mair-Gruber, Roland
!!!EEV: 2021/08/16
